images/50306072.svg

<?xml version="1.0" encoding="UTF-8"?>
<svg xmlns="http://www.w3.org/2000/svg" xmlns:xlink="http://www.w3.org/1999/xlink" width="300pt" height="300pt" viewBox="0 0 300 300" version="1.1">
<defs>
<g>
<symbol overflow="visible" id="glyph0-0">
<path style="stroke:none;" d="M 0.453125 1.59375 L 0.453125 -6.34375 L 4.953125 -6.34375 L 4.953125 1.59375 Z M 0.953125 1.09375 L 4.453125 1.09375 L 4.453125 -5.84375 L 0.953125 -5.84375 Z M 0.953125 1.09375 "/>
</symbol>
<symbol overflow="visible" id="glyph0-1">
<path style="stroke:none;" d="M 0.890625 -6.5625 L 4.65625 -6.5625 L 4.65625 -5.8125 L 1.765625 -5.8125 L 1.765625 -3.875 L 4.375 -3.875 L 4.375 -3.140625 L 1.765625 -3.140625 L 1.765625 0 L 0.890625 0 Z M 0.890625 -6.5625 "/>
</symbol>
<symbol overflow="visible" id="glyph0-2">
<path style="stroke:none;" d="M 0.890625 -6.5625 L 2.078125 -6.5625 L 4.984375 -1.078125 L 4.984375 -6.5625 L 5.84375 -6.5625 L 5.84375 0 L 4.65625 0 L 1.75 -5.484375 L 1.75 0 L 0.890625 0 Z M 0.890625 -6.5625 "/>
</symbol>
<symbol overflow="visible" id="glyph0-3">
<path style="stroke:none;" d="M 3.546875 -5.953125 C 2.898438 -5.953125 2.382812 -5.710938 2 -5.234375 C 1.625 -4.753906 1.4375 -4.101562 1.4375 -3.28125 C 1.4375 -2.445312 1.625 -1.789062 2 -1.3125 C 2.382812 -0.832031 2.898438 -0.59375 3.546875 -0.59375 C 4.191406 -0.59375 4.703125 -0.832031 5.078125 -1.3125 C 5.453125 -1.789062 5.640625 -2.445312 5.640625 -3.28125 C 5.640625 -4.101562 5.453125 -4.753906 5.078125 -5.234375 C 4.703125 -5.710938 4.191406 -5.953125 3.546875 -5.953125 Z M 3.546875 -6.6875 C 4.460938 -6.6875 5.195312 -6.375 5.75 -5.75 C 6.300781 -5.132812 6.578125 -4.3125 6.578125 -3.28125 C 6.578125 -2.238281 6.300781 -1.410156 5.75 -0.796875 C 5.195312 -0.179688 4.460938 0.125 3.546875 0.125 C 2.617188 0.125 1.878906 -0.179688 1.328125 -0.796875 C 0.773438 -1.410156 0.5 -2.238281 0.5 -3.28125 C 0.5 -4.3125 0.773438 -5.132812 1.328125 -5.75 C 1.878906 -6.375 2.617188 -6.6875 3.546875 -6.6875 Z M 3.546875 -6.6875 "/>
</symbol>
<symbol overflow="visible" id="glyph0-4">
<path style="stroke:none;" d="M 0.890625 -6.5625 L 1.765625 -6.5625 L 1.765625 -3.875 L 5 -3.875 L 5 -6.5625 L 5.890625 -6.5625 L 5.890625 0 L 5 0 L 5 -3.125 L 1.765625 -3.125 L 1.765625 0 L 0.890625 0 Z M 0.890625 -6.5625 "/>
</symbol>
</g>
</defs>
<g id="surface24577">
<rect x="0" y="0" width="300" height="300" style="fill:rgb(100%,100%,100%);fill-opacity:1;stroke:none;"/>
<path style="fill:none;stroke-width:1.2;stroke-linecap:butt;stroke-linejoin:miter;stroke:rgb(20%,80%,80%);stroke-opacity:1;stroke-miterlimit:10;" d="M 264.75 178.121094 L 253.789062 171.976562 "/>
<path style="fill:none;stroke-width:1.2;stroke-linecap:butt;stroke-linejoin:miter;stroke:rgb(0%,0%,0%);stroke-opacity:1;stroke-miterlimit:10;" d="M 253.789062 171.976562 L 242.832031 165.828125 "/>
<path style=" stroke:none;fill-rule:nonzero;fill:rgb(100%,100%,100%);fill-opacity:1;" d="M 261.75 172.621094 L 267.75 172.621094 L 267.75 183.621094 L 261.75 183.621094 Z M 261.75 172.621094 "/>
<g style="fill:rgb(20%,80%,80%);fill-opacity:1;">
  <use xlink:href="#glyph0-1" x="261.75" y="181.28418"/>
</g>
<path style="fill:none;stroke-width:1.2;stroke-linecap:butt;stroke-linejoin:miter;stroke:rgb(0%,0%,0%);stroke-opacity:1;stroke-miterlimit:10;" d="M 242.832031 165.828125 L 221.226562 178.667969 "/>
<path style="fill:none;stroke-width:1.2;stroke-linecap:butt;stroke-linejoin:miter;stroke:rgb(0%,0%,0%);stroke-opacity:1;stroke-miterlimit:10;" d="M 237.652344 162.03125 L 220.367188 172.300781 "/>
<path style="fill:none;stroke-width:1.2;stroke-linecap:butt;stroke-linejoin:miter;stroke:rgb(0%,0%,0%);stroke-opacity:1;stroke-miterlimit:10;" d="M 242.515625 140.703125 L 242.832031 165.828125 "/>
<path style="fill:none;stroke-width:1.2;stroke-linecap:butt;stroke-linejoin:miter;stroke:rgb(0%,0%,0%);stroke-opacity:1;stroke-miterlimit:10;" d="M 221.226562 178.667969 L 199.308594 166.375 "/>
<path style="fill:none;stroke-width:1.2;stroke-linecap:butt;stroke-linejoin:miter;stroke:rgb(0%,0%,0%);stroke-opacity:1;stroke-miterlimit:10;" d="M 199.308594 166.375 L 198.996094 141.25 "/>
<path style="fill:none;stroke-width:1.2;stroke-linecap:butt;stroke-linejoin:miter;stroke:rgb(0%,0%,0%);stroke-opacity:1;stroke-miterlimit:10;" d="M 205.191406 163.789062 L 204.9375 143.6875 "/>
<path style="fill:none;stroke-width:1.2;stroke-linecap:butt;stroke-linejoin:miter;stroke:rgb(0%,0%,0%);stroke-opacity:1;stroke-miterlimit:10;" d="M 198.996094 141.25 L 220.597656 128.414062 "/>
<path style="fill:none;stroke-width:1.2;stroke-linecap:butt;stroke-linejoin:miter;stroke:rgb(0%,0%,0%);stroke-opacity:1;stroke-miterlimit:10;" d="M 198.996094 141.25 L 177.074219 128.960938 "/>
<path style="fill:none;stroke-width:1.2;stroke-linecap:butt;stroke-linejoin:miter;stroke:rgb(0%,0%,0%);stroke-opacity:1;stroke-miterlimit:10;" d="M 220.597656 128.414062 L 242.515625 140.703125 "/>
<path style="fill:none;stroke-width:1.2;stroke-linecap:butt;stroke-linejoin:miter;stroke:rgb(0%,0%,0%);stroke-opacity:1;stroke-miterlimit:10;" d="M 219.898438 134.796875 L 237.433594 144.632812 "/>
<path style="fill:none;stroke-width:1.2;stroke-linecap:butt;stroke-linejoin:miter;stroke:rgb(0%,0%,0%);stroke-opacity:1;stroke-miterlimit:10;" d="M 177.074219 128.960938 L 154.25 139.46875 "/>
<path style="fill:none;stroke-width:1.2;stroke-linecap:butt;stroke-linejoin:miter;stroke:rgb(0%,0%,0%);stroke-opacity:1;stroke-miterlimit:10;" d="M 172.320312 124.640625 L 154.058594 133.046875 "/>
<path style="fill:none;stroke-width:1.2;stroke-linecap:butt;stroke-linejoin:miter;stroke:rgb(0%,0%,0%);stroke-opacity:1;stroke-miterlimit:10;" d="M 174.136719 104.003906 L 177.074219 128.960938 "/>
<path style="fill:none;stroke-width:1.2;stroke-linecap:butt;stroke-linejoin:miter;stroke:rgb(0%,0%,0%);stroke-opacity:1;stroke-miterlimit:10;" d="M 154.25 139.46875 L 145.726562 130.238281 "/>
<path style="fill:none;stroke-width:1.2;stroke-linecap:butt;stroke-linejoin:miter;stroke:rgb(0%,0%,100%);stroke-opacity:1;stroke-miterlimit:10;" d="M 145.726562 130.238281 L 137.203125 121.003906 "/>
<path style="fill:none;stroke-width:1.2;stroke-linecap:butt;stroke-linejoin:miter;stroke:rgb(0%,0%,0%);stroke-opacity:1;stroke-miterlimit:10;" d="M 154.25 139.46875 L 149.332031 164.113281 "/>
<path style="fill:none;stroke-width:1.2;stroke-linecap:butt;stroke-linejoin:miter;stroke:rgb(0%,0%,100%);stroke-opacity:1;stroke-miterlimit:10;" d="M 137.203125 121.003906 L 143.347656 110.046875 "/>
<path style="fill:none;stroke-width:1.2;stroke-linecap:butt;stroke-linejoin:miter;stroke:rgb(100%,0%,0%);stroke-opacity:1;stroke-miterlimit:10;" d="M 143.347656 110.046875 L 149.492188 99.085938 "/>
<path style="fill:none;stroke-width:1.2;stroke-linecap:butt;stroke-linejoin:miter;stroke:rgb(0%,0%,100%);stroke-opacity:1;stroke-miterlimit:10;" d="M 137.203125 121.003906 L 124.722656 122.476562 "/>
<path style="fill:none;stroke-width:1.2;stroke-linecap:butt;stroke-linejoin:miter;stroke:rgb(0%,0%,0%);stroke-opacity:1;stroke-miterlimit:10;" d="M 124.722656 122.476562 L 112.246094 123.945312 "/>
<path style=" stroke:none;fill-rule:nonzero;fill:rgb(100%,100%,100%);fill-opacity:1;" d="M 134.203125 115.503906 L 141.203125 115.503906 L 141.203125 126.503906 L 134.203125 126.503906 Z M 134.203125 115.503906 "/>
<g style="fill:rgb(0%,0%,100%);fill-opacity:1;">
  <use xlink:href="#glyph0-2" x="134.203125" y="124.166992"/>
</g>
<path style="fill:none;stroke-width:1.2;stroke-linecap:butt;stroke-linejoin:miter;stroke:rgb(100%,0%,0%);stroke-opacity:1;stroke-miterlimit:10;" d="M 149.492188 99.085938 L 161.8125 101.542969 "/>
<path style="fill:none;stroke-width:1.2;stroke-linecap:butt;stroke-linejoin:miter;stroke:rgb(0%,0%,0%);stroke-opacity:1;stroke-miterlimit:10;" d="M 161.8125 101.542969 L 174.136719 104.003906 "/>
<path style=" stroke:none;fill-rule:nonzero;fill:rgb(100%,100%,100%);fill-opacity:1;" d="M 145.492188 93.585938 L 153.492188 93.585938 L 153.492188 104.585938 L 145.492188 104.585938 Z M 145.492188 93.585938 "/>
<g style="fill:rgb(100%,0%,0%);fill-opacity:1;">
  <use xlink:href="#glyph0-3" x="145.492188" y="102.249023"/>
</g>
<path style="fill:none;stroke-width:1.2;stroke-linecap:butt;stroke-linejoin:miter;stroke:rgb(0%,0%,0%);stroke-opacity:1;stroke-miterlimit:10;" d="M 176.140625 106.175781 L 185.371094 97.652344 "/>
<path style="fill:none;stroke-width:1.2;stroke-linecap:butt;stroke-linejoin:miter;stroke:rgb(100%,0%,0%);stroke-opacity:1;stroke-miterlimit:10;" d="M 185.371094 97.652344 L 194.601562 89.125 "/>
<path style="fill:none;stroke-width:1.2;stroke-linecap:butt;stroke-linejoin:miter;stroke:rgb(0%,0%,0%);stroke-opacity:1;stroke-miterlimit:10;" d="M 172.128906 101.832031 L 181.359375 93.308594 "/>
<path style="fill:none;stroke-width:1.2;stroke-linecap:butt;stroke-linejoin:miter;stroke:rgb(100%,0%,0%);stroke-opacity:1;stroke-miterlimit:10;" d="M 181.359375 93.308594 L 190.589844 84.78125 "/>
<path style=" stroke:none;fill-rule:nonzero;fill:rgb(100%,100%,100%);fill-opacity:1;" d="M 188.597656 81.453125 L 196.597656 81.453125 L 196.597656 92.453125 L 188.597656 92.453125 Z M 188.597656 81.453125 "/>
<g style="fill:rgb(100%,0%,0%);fill-opacity:1;">
  <use xlink:href="#glyph0-3" x="188.597656" y="90.116211"/>
</g>
<path style="fill:none;stroke-width:1.2;stroke-linecap:butt;stroke-linejoin:miter;stroke:rgb(0%,0%,0%);stroke-opacity:1;stroke-miterlimit:10;" d="M 112.246094 123.945312 L 104.730469 113.875 "/>
<path style="fill:none;stroke-width:1.2;stroke-linecap:butt;stroke-linejoin:miter;stroke:rgb(100%,0%,0%);stroke-opacity:1;stroke-miterlimit:10;" d="M 104.730469 113.875 L 97.21875 103.804688 "/>
<path style="fill:none;stroke-width:1.2;stroke-linecap:butt;stroke-linejoin:miter;stroke:rgb(100%,0%,0%);stroke-opacity:1;stroke-miterlimit:10;" d="M 97.21875 103.804688 L 84.742188 105.273438 "/>
<path style="fill:none;stroke-width:1.2;stroke-linecap:butt;stroke-linejoin:miter;stroke:rgb(0%,0%,0%);stroke-opacity:1;stroke-miterlimit:10;" d="M 84.742188 105.273438 L 72.261719 106.742188 "/>
<path style=" stroke:none;fill-rule:nonzero;fill:rgb(100%,100%,100%);fill-opacity:1;" d="M 93.21875 98.304688 L 101.21875 98.304688 L 101.21875 109.304688 L 93.21875 109.304688 Z M 93.21875 98.304688 "/>
<g style="fill:rgb(100%,0%,0%);fill-opacity:1;">
  <use xlink:href="#glyph0-3" x="93.21875" y="106.967773"/>
</g>
<path style="fill:none;stroke-width:1.2;stroke-linecap:butt;stroke-linejoin:miter;stroke:rgb(0%,0%,0%);stroke-opacity:1;stroke-miterlimit:10;" d="M 72.261719 106.742188 L 57.238281 86.601562 "/>
<path style="fill:none;stroke-width:1.2;stroke-linecap:butt;stroke-linejoin:miter;stroke:rgb(0%,0%,0%);stroke-opacity:1;stroke-miterlimit:10;" d="M 149.332031 164.113281 L 137.433594 168.144531 "/>
<path style="fill:none;stroke-width:1.2;stroke-linecap:butt;stroke-linejoin:miter;stroke:rgb(0%,0%,100%);stroke-opacity:1;stroke-miterlimit:10;" d="M 137.433594 168.144531 L 125.535156 172.175781 "/>
<path style="fill:none;stroke-width:1.2;stroke-linecap:butt;stroke-linejoin:miter;stroke:rgb(0%,0%,0%);stroke-opacity:1;stroke-miterlimit:10;" d="M 148.851562 170.519531 L 139.332031 173.742188 "/>
<path style="fill:none;stroke-width:1.2;stroke-linecap:butt;stroke-linejoin:miter;stroke:rgb(0%,0%,100%);stroke-opacity:1;stroke-miterlimit:10;" d="M 139.332031 173.742188 L 129.8125 176.96875 "/>
<path style="fill:none;stroke-width:1.2;stroke-linecap:butt;stroke-linejoin:miter;stroke:rgb(0%,0%,0%);stroke-opacity:1;stroke-miterlimit:10;" d="M 168.21875 180.691406 L 149.332031 164.113281 "/>
<path style="fill:none;stroke-width:1.2;stroke-linecap:butt;stroke-linejoin:miter;stroke:rgb(0%,0%,100%);stroke-opacity:1;stroke-miterlimit:10;" d="M 125.535156 172.175781 L 123.074219 184.5 "/>
<path style="fill:none;stroke-width:1.2;stroke-linecap:butt;stroke-linejoin:miter;stroke:rgb(0%,0%,0%);stroke-opacity:1;stroke-miterlimit:10;" d="M 123.074219 184.5 L 120.617188 196.820312 "/>
<path style=" stroke:none;fill-rule:nonzero;fill:rgb(100%,100%,100%);fill-opacity:1;" d="M 122.535156 166.675781 L 129.535156 166.675781 L 129.535156 177.675781 L 122.535156 177.675781 Z M 122.535156 166.675781 "/>
<g style="fill:rgb(0%,0%,100%);fill-opacity:1;">
  <use xlink:href="#glyph0-2" x="122.535156" y="175.338867"/>
</g>
<path style="fill:none;stroke-width:1.2;stroke-linecap:butt;stroke-linejoin:miter;stroke:rgb(0%,0%,0%);stroke-opacity:1;stroke-miterlimit:10;" d="M 120.617188 196.820312 L 108.71875 200.851562 "/>
<path style="fill:none;stroke-width:1.2;stroke-linecap:butt;stroke-linejoin:miter;stroke:rgb(100%,0%,0%);stroke-opacity:1;stroke-miterlimit:10;" d="M 108.71875 200.851562 L 96.820312 204.886719 "/>
<path style="fill:none;stroke-width:1.2;stroke-linecap:butt;stroke-linejoin:miter;stroke:rgb(0%,0%,0%);stroke-opacity:1;stroke-miterlimit:10;" d="M 120.617188 196.820312 L 130.058594 205.109375 "/>
<path style="fill:none;stroke-width:1.2;stroke-linecap:butt;stroke-linejoin:miter;stroke:rgb(0%,0%,100%);stroke-opacity:1;stroke-miterlimit:10;" d="M 130.058594 205.109375 L 139.503906 213.398438 "/>
<path style="fill:none;stroke-width:1.2;stroke-linecap:butt;stroke-linejoin:miter;stroke:rgb(0%,0%,0%);stroke-opacity:1;stroke-miterlimit:10;" d="M 126.40625 194.035156 L 133.960938 200.667969 "/>
<path style="fill:none;stroke-width:1.2;stroke-linecap:butt;stroke-linejoin:miter;stroke:rgb(0%,0%,100%);stroke-opacity:1;stroke-miterlimit:10;" d="M 133.960938 200.667969 L 141.515625 207.296875 "/>
<path style="fill:none;stroke-width:1.2;stroke-linecap:butt;stroke-linejoin:miter;stroke:rgb(100%,0%,0%);stroke-opacity:1;stroke-miterlimit:10;" d="M 96.820312 204.886719 L 87.375 196.59375 "/>
<path style="fill:none;stroke-width:1.2;stroke-linecap:butt;stroke-linejoin:miter;stroke:rgb(0%,0%,0%);stroke-opacity:1;stroke-miterlimit:10;" d="M 87.375 196.59375 L 77.933594 188.304688 "/>
<path style=" stroke:none;fill-rule:nonzero;fill:rgb(100%,100%,100%);fill-opacity:1;" d="M 92.820312 199.386719 L 100.820312 199.386719 L 100.820312 210.386719 L 92.820312 210.386719 Z M 92.820312 199.386719 "/>
<g style="fill:rgb(100%,0%,0%);fill-opacity:1;">
  <use xlink:href="#glyph0-3" x="92.820312" y="208.049805"/>
</g>
<path style="fill:none;stroke-width:1.2;stroke-linecap:butt;stroke-linejoin:miter;stroke:rgb(0%,0%,0%);stroke-opacity:1;stroke-miterlimit:10;" d="M 77.933594 188.304688 L 82.851562 163.664062 "/>
<path style="fill:none;stroke-width:1.2;stroke-linecap:butt;stroke-linejoin:miter;stroke:rgb(0%,0%,0%);stroke-opacity:1;stroke-miterlimit:10;" d="M 72.628906 184.683594 L 76.558594 164.96875 "/>
<path style="fill:none;stroke-width:1.2;stroke-linecap:butt;stroke-linejoin:miter;stroke:rgb(0%,0%,0%);stroke-opacity:1;stroke-miterlimit:10;" d="M 54.132812 196.371094 L 77.933594 188.304688 "/>
<path style="fill:none;stroke-width:1.2;stroke-linecap:butt;stroke-linejoin:miter;stroke:rgb(0%,0%,0%);stroke-opacity:1;stroke-miterlimit:10;" d="M 82.851562 163.664062 L 63.964844 147.082031 "/>
<path style="fill:none;stroke-width:1.2;stroke-linecap:butt;stroke-linejoin:miter;stroke:rgb(0%,0%,0%);stroke-opacity:1;stroke-miterlimit:10;" d="M 63.964844 147.082031 L 66.421875 134.761719 "/>
<path style="fill:none;stroke-width:1.2;stroke-linecap:butt;stroke-linejoin:miter;stroke:rgb(100%,0%,0%);stroke-opacity:1;stroke-miterlimit:10;" d="M 66.421875 134.761719 L 68.878906 122.441406 "/>
<path style="fill:none;stroke-width:1.2;stroke-linecap:butt;stroke-linejoin:miter;stroke:rgb(0%,0%,0%);stroke-opacity:1;stroke-miterlimit:10;" d="M 63.964844 147.082031 L 40.164062 155.148438 "/>
<path style="fill:none;stroke-width:1.2;stroke-linecap:butt;stroke-linejoin:miter;stroke:rgb(0%,0%,0%);stroke-opacity:1;stroke-miterlimit:10;" d="M 63.484375 153.488281 L 44.441406 159.941406 "/>
<path style=" stroke:none;fill-rule:nonzero;fill:rgb(100%,100%,100%);fill-opacity:1;" d="M 61.878906 116.941406 L 76.878906 116.941406 L 76.878906 127.941406 L 61.878906 127.941406 Z M 61.878906 116.941406 "/>
<g style="fill:rgb(100%,0%,0%);fill-opacity:1;">
  <use xlink:href="#glyph0-3" x="61.878906" y="125.604492"/>
  <use xlink:href="#glyph0-4" x="69.220703" y="125.604492"/>
</g>
<path style="fill:none;stroke-width:1.2;stroke-linecap:butt;stroke-linejoin:miter;stroke:rgb(0%,0%,0%);stroke-opacity:1;stroke-miterlimit:10;" d="M 40.164062 155.148438 L 35.25 179.792969 "/>
<path style="fill:none;stroke-width:1.2;stroke-linecap:butt;stroke-linejoin:miter;stroke:rgb(0%,0%,0%);stroke-opacity:1;stroke-miterlimit:10;" d="M 35.25 179.792969 L 54.132812 196.371094 "/>
<path style="fill:none;stroke-width:1.2;stroke-linecap:butt;stroke-linejoin:miter;stroke:rgb(0%,0%,0%);stroke-opacity:1;stroke-miterlimit:10;" d="M 41.039062 177.007812 L 56.148438 190.269531 "/>
<path style="fill:none;stroke-width:1.2;stroke-linecap:butt;stroke-linejoin:miter;stroke:rgb(0%,0%,100%);stroke-opacity:1;stroke-miterlimit:10;" d="M 139.503906 213.398438 L 151.402344 209.367188 "/>
<path style="fill:none;stroke-width:1.2;stroke-linecap:butt;stroke-linejoin:miter;stroke:rgb(0%,0%,0%);stroke-opacity:1;stroke-miterlimit:10;" d="M 151.402344 209.367188 L 163.300781 205.332031 "/>
<path style=" stroke:none;fill-rule:nonzero;fill:rgb(100%,100%,100%);fill-opacity:1;" d="M 136.503906 207.898438 L 143.503906 207.898438 L 143.503906 218.898438 L 136.503906 218.898438 Z M 136.503906 207.898438 "/>
<g style="fill:rgb(0%,0%,100%);fill-opacity:1;">
  <use xlink:href="#glyph0-2" x="136.503906" y="216.561523"/>
</g>
<path style="fill:none;stroke-width:1.2;stroke-linecap:butt;stroke-linejoin:miter;stroke:rgb(0%,0%,0%);stroke-opacity:1;stroke-miterlimit:10;" d="M 163.300781 205.332031 L 168.21875 180.691406 "/>
<path style="fill:none;stroke-width:1.2;stroke-linecap:butt;stroke-linejoin:miter;stroke:rgb(0%,0%,0%);stroke-opacity:1;stroke-miterlimit:10;" d="M 157.996094 201.714844 L 161.929688 181.996094 "/>
</g>
</svg>

<svg xmlns="http://www.w3.org/2000/svg" xmlns:xlink="http://www.w3.org/1999/xlink" width="300pt" height="300pt" viewBox="0 0 300 300"><defs><symbol overflow="visible"><path d="M.453 1.594v-7.938h4.5v7.938zm.5-.5h3.5v-6.938h-3.5zm0 0"/></symbol><symbol overflow="visible" id="a"><path d="M.89-6.563h3.766v.75h-2.89v1.938h2.61v.734h-2.61V0H.89zm0 0"/></symbol><symbol overflow="visible" id="b"><path d="M.89-6.563H2.08l2.906 5.485v-5.484h.86V0H4.656L1.75-5.484V0H.89zm0 0"/></symbol><symbol overflow="visible" id="c"><path d="M3.547-5.953c-.65 0-1.164.242-1.547.72-.375.48-.563 1.13-.563 1.952 0 .835.188 1.49.563 1.967.383.48.898.72 1.547.72.644 0 1.156-.24 1.53-.72.376-.476.564-1.132.564-1.968 0-.822-.187-1.474-.562-1.954-.375-.477-.887-.72-1.53-.72zm0-.734c.914 0 1.648.312 2.203.937.55.617.828 1.438.828 2.47 0 1.042-.277 1.87-.828 2.483-.555.617-1.29.922-2.203.922-.93 0-1.668-.305-2.22-.922C.774-1.41.5-2.237.5-3.28c0-1.033.273-1.853.828-2.47.55-.625 1.29-.938 2.22-.938zm0 0"/></symbol><symbol overflow="visible" id="d"><path d="M.89-6.563h.876v2.688H5v-2.688h.89V0H5v-3.125H1.766V0H.89zm0 0"/></symbol></defs><g><path fill="#fff" d="M0 0h300v300H0z"/><path d="M264.75 178.12l-10.96-6.143" stroke-width="1.2" stroke="#3cc" stroke-miterlimit="10" fill="none"/><path d="M253.79 171.977l-10.958-6.15" stroke-width="1.2" stroke="#000" stroke-miterlimit="10" fill="none"/><path d="M261.75 172.62h6v11h-6zm0 0" fill="#fff"/><use xlink:href="#a" x="261.75" y="181.284" fill="#3cc"/><path d="M242.832 165.828l-21.605 12.84M237.652 162.03l-17.285 10.27M242.516 140.703l.316 25.125M221.227 178.668l-21.918-12.293M199.31 166.375l-.314-25.125M205.19 163.79l-.252-20.102M198.996 141.25l21.602-12.836M198.996 141.25l-21.922-12.29M220.598 128.414l21.918 12.29M219.898 134.797l17.536 9.836M177.074 128.96l-22.824 10.51M172.32 124.64l-18.26 8.407M174.137 104.004l2.937 24.957M154.25 139.47l-8.523-9.232" stroke-width="1.2" stroke="#000" stroke-miterlimit="10" fill="none"/><path d="M145.727 130.238l-8.524-9.234" stroke-width="1.2" stroke="#00f" stroke-miterlimit="10" fill="none"/><path d="M154.25 139.47l-4.918 24.643" stroke-width="1.2" stroke="#000" stroke-miterlimit="10" fill="none"/><path d="M137.203 121.004l6.145-10.957" stroke-width="1.2" stroke="#00f" stroke-miterlimit="10" fill="none"/><path d="M143.348 110.047l6.144-10.96" stroke-width="1.2" stroke="#f00" stroke-miterlimit="10" fill="none"/><path d="M137.203 121.004l-12.48 1.473" stroke-width="1.2" stroke="#00f" stroke-miterlimit="10" fill="none"/><path d="M124.723 122.477l-12.477 1.468" stroke-width="1.2" stroke="#000" stroke-miterlimit="10" fill="none"/><path d="M134.203 115.504h7v11h-7zm0 0" fill="#fff"/><use xlink:href="#b" x="134.203" y="124.167" fill="#00f"/><path d="M149.492 99.086l12.32 2.457" stroke-width="1.2" stroke="#f00" stroke-miterlimit="10" fill="none"/><path d="M161.813 101.543l12.324 2.46" stroke-width="1.2" stroke="#000" stroke-miterlimit="10" fill="none"/><path d="M145.492 93.586h8v11h-8zm0 0" fill="#fff"/><use xlink:href="#c" x="145.492" y="102.249" fill="#f00"/><path d="M176.14 106.176l9.23-8.524" stroke-width="1.2" stroke="#000" stroke-miterlimit="10" fill="none"/><path d="M185.37 97.652l9.232-8.527" stroke-width="1.2" stroke="#f00" stroke-miterlimit="10" fill="none"/><path d="M172.13 101.832l9.23-8.523" stroke-width="1.2" stroke="#000" stroke-miterlimit="10" fill="none"/><path d="M181.36 93.31l9.23-8.53" stroke-width="1.2" stroke="#f00" stroke-miterlimit="10" fill="none"/><path d="M188.598 81.453h8v11h-8zm0 0" fill="#fff"/><use xlink:href="#c" x="188.598" y="90.116" fill="#f00"/><path d="M112.246 123.945l-7.516-10.07" stroke-width="1.2" stroke="#000" stroke-miterlimit="10" fill="none"/><path d="M104.73 113.875l-7.51-10.07M97.22 103.805l-12.478 1.468" stroke-width="1.2" stroke="#f00" stroke-miterlimit="10" fill="none"/><path d="M84.742 105.273l-12.48 1.47" stroke-width="1.2" stroke="#000" stroke-miterlimit="10" fill="none"/><path d="M93.22 98.305h8v11h-8zm0 0" fill="#fff"/><use xlink:href="#c" x="93.219" y="106.968" fill="#f00"/><path d="M72.262 106.742l-15.024-20.14M149.332 164.113l-11.898 4.032" stroke-width="1.2" stroke="#000" stroke-miterlimit="10" fill="none"/><path d="M137.434 168.145l-11.9 4.03" stroke-width="1.2" stroke="#00f" stroke-miterlimit="10" fill="none"/><path d="M148.852 170.52l-9.52 3.222" stroke-width="1.2" stroke="#000" stroke-miterlimit="10" fill="none"/><path d="M139.332 173.742l-9.52 3.227" stroke-width="1.2" stroke="#00f" stroke-miterlimit="10" fill="none"/><path d="M168.22 180.69l-18.888-16.577" stroke-width="1.2" stroke="#000" stroke-miterlimit="10" fill="none"/><path d="M125.535 172.176l-2.46 12.324" stroke-width="1.2" stroke="#00f" stroke-miterlimit="10" fill="none"/><path d="M123.074 184.5l-2.457 12.32" stroke-width="1.2" stroke="#000" stroke-miterlimit="10" fill="none"/><path d="M122.535 166.676h7v11h-7zm0 0" fill="#fff"/><use xlink:href="#b" x="122.535" y="175.339" fill="#00f"/><path d="M120.617 196.82l-11.898 4.032" stroke-width="1.2" stroke="#000" stroke-miterlimit="10" fill="none"/><path d="M108.72 200.852l-11.9 4.035" stroke-width="1.2" stroke="#f00" stroke-miterlimit="10" fill="none"/><path d="M120.617 196.82l9.442 8.29" stroke-width="1.2" stroke="#000" stroke-miterlimit="10" fill="none"/><path d="M130.06 205.11l9.444 8.288" stroke-width="1.2" stroke="#00f" stroke-miterlimit="10" fill="none"/><path d="M126.406 194.035l7.555 6.633" stroke-width="1.2" stroke="#000" stroke-miterlimit="10" fill="none"/><path d="M133.96 200.668l7.556 6.63" stroke-width="1.2" stroke="#00f" stroke-miterlimit="10" fill="none"/><path d="M96.82 204.887l-9.445-8.293" stroke-width="1.2" stroke="#f00" stroke-miterlimit="10" fill="none"/><path d="M87.375 196.594l-9.44-8.29" stroke-width="1.2" stroke="#000" stroke-miterlimit="10" fill="none"/><path d="M92.82 199.387h8v11h-8zm0 0" fill="#fff"/><use xlink:href="#c" x="92.82" y="208.05" fill="#f00"/><path d="M77.934 188.305l4.918-24.64M72.63 184.684l3.93-19.715M54.133 196.37l23.8-8.065M82.852 163.664l-18.887-16.582M63.965 147.082l2.457-12.32" stroke-width="1.2" stroke="#000" stroke-miterlimit="10" fill="none"/><path d="M66.422 134.762l2.457-12.32" stroke-width="1.2" stroke="#f00" stroke-miterlimit="10" fill="none"/><path d="M63.965 147.082l-23.8 8.066M63.484 153.488L44.44 159.94" stroke-width="1.2" stroke="#000" stroke-miterlimit="10" fill="none"/><path d="M61.88 116.94h15v11h-15zm0 0" fill="#fff"/><g fill="#f00"><use xlink:href="#c" x="61.879" y="125.604"/><use xlink:href="#d" x="69.221" y="125.604"/></g><path d="M40.164 155.148l-4.914 24.645M35.25 179.793l18.883 16.578M41.04 177.008l15.108 13.262" stroke-width="1.2" stroke="#000" stroke-miterlimit="10" fill="none"/><path d="M139.504 213.398l11.898-4.03" stroke-width="1.2" stroke="#00f" stroke-miterlimit="10" fill="none"/><path d="M151.402 209.367l11.9-4.035" stroke-width="1.2" stroke="#000" stroke-miterlimit="10" fill="none"/><path d="M136.504 207.898h7v11h-7zm0 0" fill="#fff"/><use xlink:href="#b" x="136.504" y="216.562" fill="#00f"/><path d="M163.3 205.332l4.92-24.64M157.996 201.715l3.934-19.72" stroke-width="1.2" stroke="#000" stroke-miterlimit="10" fill="none"/></g></svg>
